X: 8198
T: Coolin, The
R: strathspey
M: 4/4
K: Dmajor
AB/c/|(d2 d2) e>c|d>A F2 DF/A/|d>c de/f/ ed|d2 c2 dc/A/|
B3 c/d/ e(3d/c/B/|A2 F>A d>D|DF/A/ c3{cdc}B/A/|AG/E/ F2 DE/F/|
E2 D2 D2|D4 D2|AG/E/ F3E|D>E F>G|AG AB cA|d>c de/f/ e>d|
d2 c2 d>c/A/|B3 c/d/ e(3d/c/B/|A2 F>A d>D|DF/A/ c{cdc}B/A/|
AG/E/ F2 DE/F/|E2 D2 D2|D4 D4|D4 z2||

